X:1
T:Air
T:Air on the G String
T:BWV 1068 2. Staz
T:J. S. Bach
C:J. S. Bach
%%score { ( 1 2 4 ) | 3 }
L:1/8
Q:1/4=66
M:4/4
K:Bb
V:1 treble nm="Piano" snm="Pno."
V:2 treble 
V:4 treble 
V:3 bass 
V:1
"^Adagio" d8 | d8- | d2 ge{/d} cBAB | A4 G F3 | F8- |!<(! FD_AG c=Bfe!<)! |!>(! e8-!>)! | %7
 E!<(!CGF BAed!<)! | d6 =ef | B2 Bc/d/ dccB | AG G/A/B- B2 AG |1!>(! F8!>)! :|2 F8 |: %13
 A4- AB/A/ G/A/F | f6 _A2 | G2 g2- gfed | e4- e/d/c/B/ AG | ^FG A2- AB c2- | cd e4 d2 | %19
 cBAG AB/c/ PB>A | G8 | B4- BdcB | g6 f=e | d/c/f F2 G3 A/B/ | A3 G F4 | B6 dc | c6 ed | d6 fe | %28
 e8 | F4- FAce | ec d4 de/f/ | B4- Bdf_a | g6 B2 | Ac e4 G2 | F2 cd/e/ ed-dc | %35
 B/A/G- GA"_rit." !invertedturn!B2 PA2 | B8 :| %37
V:2
 [FB]8 | [GB]8 | [GB]4 G4 | [CF]8 | _A,2 A,G, A,4- | A,2 x6 | x2 G,F, G,4- | G,2 x6 | [FB]6 [Fc]2 | %9
 [DF]2 =E2 G2 [EG]2 | [CF]2 [DF]2 [CFG]2 [C=E]2 |1 [A,C]8 :|2 [A,C]8 |: [CF]4- [CF]2 x2 | %14
 [F_A]6 x2 | x8 | [Gc]4- [Gc]2 x2 | x7 C | D2 A,G, ^F,G, A,2 | [DG]2 E2 E2 ^F2 | [B,D]8 | %21
 [CG]4- [CG]2 F2 | [Gc=e]6 [Gc]2 | F2 C2 D2 =E2 | [CF]4 [A,C]4 | F2 G,_A, G,4 | x2 A,G, A,4 | %27
 x2 =B,A, B,2 [Gd]2 | [Gc]8 | [CE]4- [CE]2 F2 | [FB]2 [FB]4 [FB]2 | F2 E2 [D_A]4 | [GBe]6 F2 | %33
 E2 [GB]4 E2 | C2 [FA]2 [FB]2 [EG]2 | [DF]2 E2 [CE]2 E2 | [DF]8 :| %37
V:3
"_\n" B,,2 B,2 A,2 A,,2 | G,,2 G,2 F,2 F,,2 | E,,2 E,2 =E,2 =E,,2 | F,,2 F,2 E,2 E,,2 | %4
 D,,2 [=B,,F,]2 [C,F,]2 C,,2 | =B,,,2 [D,F,]2 G,,2 [=B,,G,]2 | C,,2 [C,E,]2 [B,,E,]2 B,,,2 | %7
 A,,,2 [C,E,]2 F,,2 [A,,F,]2 | B,,2 B,2 A,2 A,,2 | G,,2 G,2 =E,2 C,2 | F,2 D,2 C,2 C,,2 |1 %11
 F,,G,,A,,B,, C,E,D,C, :|2 F,2 C,2 F,,4 |: F,,2 F,2 E,2 E,,2 | D,,2 [=B,,F,]G, [C,F,_A,]2 C,,2 | %15
 =B,,,2 [D,F,]2 G,,2 [=B,,G,]2 | C,2 C2 B,2 B,,2 | A,,2 [A,C]D [G,CE]2 G,,2 | %18
 ^F,,2 G,,2 A,,2 F,,2 | A,,2 [E,B,]2 [C,C]2 [A,,C]2 | G,,2 G,2 F,2 F,,2 | =E,,2 =E,2 D,2 D,,2 | %22
 C,,2 C2 B,2 B,,2 | A,,2 A,2 B,,2 C,2 | F,,2 F,2 E,2 E,,2 | D,,2 [D,B,]2 [E,B,]2 E,,2 | %26
 =E,,2 [=E,C]2 [F,C]2 F,,2 | ^F,,2 ^F,2 G,2 =B,,2 | C,2 C2 B,2 B,,2 | A,,2 A,2 F,2 A,2 | %30
 B,2 B,,2 _A,,2 _A,2 | G,2 G,,2 F,,2 F,2 | E,2 E,,2 D,,2 D,2 | C,2 C2 B,2 B,,2 | %34
 A,,2 F,,2 B,,2 E,2 | F,2 E,2 [F,,F,]2 [F,,,F,,]2 | [B,,,B,,]8 :| %37
V:4
 x8 | x8 | x8 | x8 | x8 | x8 | x8 | x8 | x8 | x8 | x8 |1 x8 :|2 x8 |: x8 | x8 | x8 | x8 | x8 | x8 | %19
 x8 | x8 | x8 | x8 | x8 | x8 | x8 | x8 | z2 D2 D2 x2 | x8 | x8 | x8 | x8 | x8 | x8 | x8 | x8 | %36
 x8 :| %37

